X: 16
U:~=!turn!
M:C|
L:1/8
K:G
c | (BG) (B/c/)d {/f}g2 (dB) | ceTdB {/B}cAAc | (BG) (B/c/d) {/f}g2 (dB) | cedc BGGc |
(BG) (B/c/d) {/f}g2 (dB) | cedB {/B}cAAB | GDEG DGB,G | EGFA BGG |


